assets/Right anger bubble/Flat/right_anger_bubble_flat.svg

<svg width="32" height="32" viewBox="0 0 32 32" fill="none" xmlns="http://www.w3.org/2000/svg">
<path d="M9.05402 27.7882C9.3451 27.9472 9.67128 28.0311 10.003 28.0322C10.3978 28.0329 10.7841 27.9167 11.113 27.6982L16.042 24.4392L18.299 25.7601C18.6977 25.9911 19.1635 26.078 19.6187 26.0065C20.0738 25.9349 20.4904 25.7092 20.799 25.3671L22.905 23.0101H26.005C26.5354 23.0101 27.0442 22.7995 27.4193 22.4244C27.7943 22.0493 28.005 21.5406 28.005 21.0101V18.4742L30.305 16.5391C30.5278 16.3514 30.707 16.1173 30.8298 15.8531C30.9527 15.5889 31.0164 15.301 31.0164 15.0096C31.0164 14.7183 30.9527 14.4305 30.8298 14.1663C30.707 13.9021 30.5278 13.6679 30.305 13.4802L28.005 11.5441V9.01014C28.005 8.4797 27.7943 7.97103 27.4193 7.59595C27.0442 7.22088 26.5354 7.01014 26.005 7.01014H22.95L20.85 4.68317C20.5177 4.31421 20.0599 4.08208 19.5658 4.03199C19.0717 3.9819 18.5767 4.11743 18.177 4.41218L16.003 6.01215L13.83 4.39814C13.4305 4.09806 12.9327 3.95938 12.4355 4.00959C11.9384 4.0598 11.4785 4.29522 11.147 4.66913L9.05402 7.00715H6.00104C5.4706 7.00715 4.96186 7.21789 4.58679 7.59296C4.21172 7.96803 4.00104 8.47671 4.00104 9.00715V11.5422L1.70898 13.4791C1.48685 13.6669 1.30836 13.9009 1.18591 14.1647C1.06347 14.4285 1.00006 14.7158 1.00006 15.0067C1.00006 15.2975 1.06347 15.5848 1.18591 15.8486C1.30836 16.1125 1.48685 16.3464 1.70898 16.5342L4.00104 18.4702V21.0071C4.00104 21.5376 4.21172 22.0463 4.58679 22.4214C4.96186 22.7965 5.4706 23.0071 6.00104 23.0071H8.00104V26.0272C7.99773 26.3891 8.09426 26.745 8.28003 27.0557C8.4658 27.3663 8.73359 27.6198 9.05402 27.7882Z" fill="#9B9B9B"/>
<path d="M5.2959 8.30088C5.48343 8.11335 5.73777 8.00804 6.00299 8.00804L9.047 8.002C9.18761 8.00199 9.32665 7.97234 9.45502 7.91496C9.58339 7.85758 9.6982 7.77375 9.79199 7.66899L11.885 5.33104C12.0513 5.14525 12.2811 5.02831 12.5292 5.00316C12.7773 4.97799 13.0258 5.04638 13.226 5.19499L15.4 6.81102C15.5722 6.93849 15.7808 7.00731 15.995 7.00731C16.2092 7.00731 16.4178 6.93849 16.59 6.81102L18.764 5.21104C18.964 5.06358 19.2116 4.99578 19.4587 5.02092C19.7059 5.04606 19.9349 5.16233 20.101 5.34703L22.201 7.67204C22.2946 7.77637 22.4092 7.85984 22.5372 7.91703C22.6652 7.97423 22.8038 8.00385 22.944 8.00401H25.999C26.2642 8.00401 26.5186 8.10938 26.7061 8.29692C26.8937 8.48445 26.999 8.73879 26.999 9.00401V11.538C26.9989 11.6837 27.0306 11.8276 27.0919 11.9598C27.1532 12.0919 27.2427 12.2091 27.354 12.303L29.654 14.239C29.7653 14.3329 29.8548 14.45 29.9162 14.582C29.9776 14.7141 30.0094 14.8579 30.0094 15.0035C30.0094 15.1491 29.9776 15.293 29.9162 15.425C29.8548 15.5571 29.7653 15.6741 29.654 15.768L27.354 17.705C27.2431 17.7988 27.154 17.9157 27.0929 18.0475C27.0318 18.1792 27 18.3227 27 18.468V21.004C27 21.2692 26.8946 21.5236 26.7071 21.7111C26.5196 21.8986 26.2652 22.004 26 22.004H22.9C22.7592 22.004 22.6199 22.0337 22.4913 22.0913C22.3628 22.1488 22.2478 22.2329 22.154 22.338L20.048 24.695C19.8947 24.8674 19.6865 24.9815 19.4587 25.018C19.2309 25.0544 18.9975 25.011 18.798 24.895L16.541 23.575C16.3802 23.4788 16.1954 23.4303 16.0081 23.4351C15.8208 23.4399 15.6387 23.4978 15.483 23.602L10.554 26.862C10.4033 26.9615 10.2285 27.0183 10.0481 27.0265C9.8677 27.0346 9.68846 26.9938 9.52942 26.9082C9.37037 26.8227 9.23746 26.6957 9.14478 26.5408C9.05209 26.3858 9.00308 26.2086 9.00299 26.028V23.008C9.00299 22.7428 8.89768 22.4884 8.71014 22.3009C8.52261 22.1133 8.26821 22.008 8.00299 22.008H6.00299C5.73777 22.008 5.48343 21.9027 5.2959 21.7151C5.10836 21.5276 5.00299 21.2733 5.00299 21.008V18.471C5.00282 18.3257 4.97098 18.1821 4.90967 18.0503C4.84836 17.9186 4.75907 17.8017 4.64801 17.708L2.35699 15.771C2.24584 15.6772 2.15655 15.5602 2.09528 15.4282C2.034 15.2962 2.00226 15.1525 2.00226 15.007C2.00226 14.8615 2.034 14.7178 2.09528 14.5859C2.15655 14.4539 2.24584 14.3369 2.35699 14.243L4.64801 12.307C4.7592 12.2131 4.8486 12.0962 4.90991 11.9642C4.97123 11.8323 5.00296 11.6885 5.00299 11.543V9.00804C5.00299 8.74282 5.10836 8.48842 5.2959 8.30088Z" fill="white"/>
</svg>

<svg xmlns="http://www.w3.org/2000/svg" width="32" height="32" fill="none"><path fill="#9B9B9B" d="M9.054 27.788a1.993 1.993 0 0 0 2.059-.09l4.929-3.259 2.257 1.321a2.01 2.01 0 0 0 2.5-.393l2.106-2.357h3.1a2 2 0 0 0 2-2v-2.536l2.3-1.935a1.999 1.999 0 0 0 0-3.059l-2.3-1.936V9.01a2 2 0 0 0-2-2H22.95l-2.1-2.327a2 2 0 0 0-2.673-.27l-2.174 1.6-2.173-1.615a1.989 1.989 0 0 0-2.683.271L9.054 7.007H6.001a2 2 0 0 0-2 2v2.535L1.709 13.48a2.001 2.001 0 0 0 0 3.055l2.292 1.936v2.537a2 2 0 0 0 2 2h2v3.02a1.97 1.97 0 0 0 1.053 1.761Z"/><path fill="#fff" d="M5.296 8.3a1 1 0 0 1 .707-.292l3.044-.006a1 1 0 0 0 .745-.333l2.093-2.338a1 1 0 0 1 1.341-.136L15.4 6.811a1 1 0 0 0 1.19 0l2.174-1.6a1 1 0 0 1 1.337.136l2.1 2.325a1 1 0 0 0 .743.332h3.055a1 1 0 0 1 1 1v2.534a1 1 0 0 0 .355.765l2.3 1.936a1.001 1.001 0 0 1 0 1.529l-2.3 1.937a.999.999 0 0 0-.354.763v2.536a1 1 0 0 1-1 1h-3.1a1 1 0 0 0-.746.334l-2.106 2.357a1 1 0 0 1-1.25.2l-2.257-1.32a.989.989 0 0 0-1.058.027l-4.929 3.26a1 1 0 0 1-1.551-.834v-3.02a1 1 0 0 0-1-1h-2a1 1 0 0 1-1-1v-2.537a1 1 0 0 0-.355-.763l-2.291-1.937a.999.999 0 0 1 0-1.528l2.291-1.936a1 1 0 0 0 .355-.764V9.008a1 1 0 0 1 .293-.707Z"/></svg>
